!!!OTL: Amazing Grace
!!!COM: unknown
!!!LYR: Newton, John
!!!ODT: unknown
!!!YOR: The Folksong Fake Book
!!!YOY: 2000
!!!AST: Spiritual
!!!YEC: Brian Luke, 2001
**kern	**harm
*k[f#]	*k[f#]
*M3/4	*M3/4
*G:	*G:
*>A	*>A
4d	.
=1	=1
2g	I
8b	.
8g	.
=2	=2
2b	V7/IV
4a	.
=3	=3
2g	IV
4e	.
=4	=4
2d	I
4d	.
=5	=5
2g	.
8b	.
8g	.
=6	=6
2b	V7/V
4a	.
=7	=7
[2.dd	V
=8	=8
2dd]	V7
4b	.
=9	=9
4.dd	I
8b	.
8dd	.
8b	.
=10	=10
2g	V7/IV
4d	.
=11	=11
4.e	IV
8g	.
8g	.
8e	.
=12	=12
2d	I
4d	.
=13	=13
2g	vi
8b	.
8g	.
=14	=14
2b	V7/V
4a	V7
=15	=15
[2.g	I;
=16	=16
2g]	.
*-	*-
